;Generated with Cura_SteamEngine 13.06.4
M92 E54.118000
M140 S70.000000
M109 T0 S225.000000
T0
M190 S70.000000
;Sliced ?filename? at: Thu 26 Sep 2013 21:03:04
;Basic settings: Layer height: 0.06 Walls: 0.4 Fill: 20
;Print time: #P_TIME#
;Filament used: #F_AMNT#m #F_WGHT#g
;Filament cost: #F_COST#
M92 X79.1359 Y79.1359 Z526.112 E826.5
G21        ;metric values
G90        ;absolute positioning
M107       ;start with the fan off
G28 X0 Y0  ;move X/Y to min endstops
G28 Z0     ;move Z to min endstops
G92 X0 Y0 Z0 E0         ;reset software position to front/left/z=0.0
G1 Z15.0 F0 ;move the platform down 15mm
G92 E0                  ;zero the extruded length
G1 F200 E3              ;extrude 3mm of feed stock
G92 E0                  ;zero the extruded length again
;go to the middle of the platform (disabled, as there is no need to go to the center)
;G1 X?machine_center_x? Y?machine_center_y? F15000
G1 F15000

;total_layers=140
;LAYER:0
M107
G0 F7920 X96.56 Y95.57 Z0.30
;TYPE:SKIRT
G1 F4740 X97.87 Y94.26 E0.03662
G1 X99.19 Y93.71 E0.06477
G1 X100.81 Y93.71 E0.09656
G1 X102.13 Y94.26 E0.12471
G1 X103.44 Y95.57 E0.16130
G1 X103.99 Y96.89 E0.18958
G1 X103.99 Y103.10 E0.31190
G1 X103.44 Y104.43 E0.34023
G1 X102.13 Y105.74 E0.37684
G1 X100.81 Y106.29 E0.40500
G1 X99.19 Y106.29 E0.43679
G1 X97.87 Y105.74 E0.46495
G1 X96.56 Y104.43 E0.50154
G1 X96.01 Y103.10 E0.52982
G1 X96.01 Y96.90 E0.65215
G1 X96.56 Y95.57 E0.68047
G0 F7920 X96.90 Y95.80
G1 F4740 X98.10 Y94.60 E0.71393
G1 X99.27 Y94.11 E0.73896
G1 X100.73 Y94.11 E0.76764
G1 X101.90 Y94.60 E0.79268
G1 X103.10 Y95.80 E0.82611
G1 X103.59 Y96.97 E0.85125
G1 X103.59 Y103.02 E0.97045
G1 X103.10 Y104.20 E0.99562
G1 X101.90 Y105.40 E1.02908
G1 X100.73 Y105.89 E1.05412
G1 X99.27 Y105.89 E1.08280
G1 X98.10 Y105.40 E1.10784
G1 X96.90 Y104.20 E1.14128
G1 X96.41 Y103.02 E1.16642
G1 X96.41 Y96.98 E1.28561
G1 X96.90 Y95.80 E1.31078
G1 F2400 E-3.18922
G0 F7920 X99.81 Y97.70
;TYPE:WALL-OUTER
G1 F2400 E1.31078
G1 F4740 X99.99 Y97.51 E1.31589
G1 X100.01 Y97.51 E1.31625
G1 X100.19 Y97.70 E1.32134
G1 X100.19 Y102.30 E1.41211
G1 X100.01 Y102.49 E1.41722
G1 X99.99 Y102.49 E1.41758
G1 X99.81 Y102.30 E1.42266
G1 X99.81 Y97.70 E1.51344
;LAYER:1
M106 S255
G0 F900 X99.65 Y97.79 Z0.36
;TYPE:WALL-OUTER
G1 F540 X99.95 Y97.49 E1.51513
G1 X100.05 Y97.49 E1.51549
G1 X100.35 Y97.79 E1.51718
G1 X100.35 Y102.21 E1.53457
G1 X100.05 Y102.51 E1.53626
G1 X99.95 Y102.51 E1.53662
G1 X99.65 Y102.21 E1.53831
G1 X99.65 Y97.79 E1.55570
G0 F900 X99.75 Y97.85
;TYPE:FILL
G1 F540 X100.11 Y97.77 E1.55693
G1 X100.00 Y98.45 E1.55970
G1 X99.75 Y99.16 E1.56248
G1 X100.25 Y99.72 E1.56526
G1 X99.75 Y99.97 E1.56803
G1 X100.25 Y99.19 E1.57080
G1 X99.75 Y99.55 E1.57322
G0 F900 X100.25 Y100.18
G1 F540 X100.00 Y100.71 E1.57599
G1 X100.00 Y101.28 E1.57876
G1 X99.80 Y102.04 E1.58154
G1 X100.25 Y101.88 E1.58341
G0 F900 X100.05 Y101.88
;LAYER:2
G0 F1320 X100.51 Y102.11 Z0.42
;TYPE:WALL-OUTER
G1 F780 X100.08 Y102.53 E1.58577
G1 X99.92 Y102.53 E1.58643
G1 X99.49 Y102.11 E1.58878
G1 X99.49 Y97.89 E1.60541
G1 X99.92 Y97.47 E1.60777
G1 X100.08 Y97.47 E1.60842
G1 X100.51 Y97.89 E1.61078
G1 X100.51 Y102.11 E1.62740
G0 F1320 X100.41 Y102.03
;TYPE:FILL
G1 F780 X99.59 Y101.22 E1.63194
G0 F1320 X99.59 Y101.78
G1 F780 X100.14 Y102.33 E1.63499
G0 F1320 X100.41 Y101.47
G1 F780 X99.59 Y100.65 E1.63953
G0 F1320 X99.59 Y100.09
G1 F780 X100.41 Y100.90 E1.64407
G0 F1320 X100.41 Y100.33
G1 F780 X99.59 Y99.52 E1.64861
G0 F1320 X99.59 Y99.24
G1 F780 X100.41 Y100.05 E1.65316
G0 F1320 X100.40 Y99.77
G1 F780 X99.59 Y98.95 E1.65769
G0 F1320 X99.59 Y98.39
G1 F780 X100.40 Y99.20 E1.66224
G0 F1320 X100.40 Y99.24
G1 F780 X99.59 Y100.05 E1.66676
G0 F1320 X99.79 Y100.05
G0 X100.21 Y98.64
G0 X100.40 Y98.64
G1 F780 X99.65 Y97.88 E1.67099
G0 F1320 X99.93 Y97.59
G1 F780 X100.40 Y98.07 E1.67364
G0 F1320 X100.21 Y98.07
;LAYER:3
G0 X100.66 Y97.99 Z0.48
;TYPE:WALL-OUTER
G1 F780 X100.66 Y102.01 E1.68950
G1 X100.12 Y102.55 E1.69253
G1 X99.88 Y102.55 E1.69347
G1 X99.34 Y102.01 E1.69650
G1 X99.34 Y97.99 E1.71236
G1 X99.88 Y97.45 E1.71539
G1 X100.12 Y97.45 E1.71633
G1 X100.66 Y97.99 E1.71936
G0 F1320 X100.41 Y97.88
;TYPE:FILL
G1 F780 X99.43 Y98.85 E1.72480
G0 F1320 X99.43 Y98.29
G1 F780 X100.13 Y97.60 E1.72867
G0 F1320 X100.56 Y98.29
G1 F780 X99.43 Y99.42 E1.73495
G0 F1320 X99.43 Y99.99
G1 F780 X100.56 Y98.86 E1.74122
G0 F1320 X100.56 Y99.42
G1 F780 X99.44 Y100.55 E1.74750
G0 F1320 X99.44 Y101.11
G1 F780 X100.56 Y99.99 E1.75377
G0 F1320 X100.56 Y100.56
G1 F780 X99.44 Y101.68 E1.76005
G0 F1320 X99.57 Y102.11
G1 F780 X100.56 Y101.12 E1.76556
G0 F1320 X100.56 Y101.69
G1 F780 X99.86 Y102.39 E1.76949
G0 F1320 X100.00 Y102.25
;LAYER:4
G0 F1500 X99.84 Y102.58 Z0.54
;TYPE:WALL-OUTER
G1 F900 X99.18 Y101.92 E1.77318
G1 X99.18 Y98.09 E1.78828
G1 X99.84 Y97.42 E1.79198
G1 X100.16 Y97.42 E1.79321
G1 X100.82 Y98.08 E1.79691
G1 X100.82 Y101.91 E1.81200
G1 X100.16 Y102.58 E1.81570
G1 X99.84 Y102.58 E1.81694
G0 F1500 X100.14 Y102.45
;TYPE:FILL
G1 F900 X99.28 Y101.59 E1.82174
G0 F1500 X99.28 Y101.02
G1 F900 X100.42 Y102.17 E1.82812
G0 F1500 X100.71 Y101.89
G1 F900 X99.28 Y100.46 E1.83607
G0 F1500 X99.28 Y99.89
G1 F900 X100.72 Y101.33 E1.84411
G0 F1500 X100.72 Y100.77
G1 F900 X99.28 Y99.32 E1.85216
G0 F1500 X99.28 Y98.76
G1 F900 X100.72 Y100.20 E1.86020
G0 F1500 X100.72 Y99.64
G1 F900 X99.28 Y98.19 E1.86825
G0 F1500 X99.53 Y97.88
G1 F900 X100.72 Y99.07 E1.87489
G0 F1500 X100.72 Y98.50
G1 F900 X99.81 Y97.60 E1.87995
G0 F1500 X99.95 Y97.74
;LAYER:5
G0 F1620 X99.80 Y97.40 Z0.60
;TYPE:WALL-OUTER
G1 F960 X100.19 Y97.40 E1.88149
G1 X100.98 Y98.18 E1.88585
G1 X100.98 Y101.82 E1.90018
G1 X100.20 Y102.60 E1.90454
G1 X99.81 Y102.60 E1.90608
G1 X99.02 Y101.82 E1.91044
G1 X99.02 Y98.18 E1.92477
G1 X99.80 Y97.40 E1.92913
G0 F1620 X100.25 Y97.60
;TYPE:FILL
G1 F960 X99.12 Y98.72 E1.93542
G0 F1620 X99.12 Y99.29
G1 F960 X100.53 Y97.88 E1.94329
G0 F1620 X100.82 Y98.16
G1 F960 X99.12 Y99.86 E1.95273
G0 F1620 X99.12 Y100.42
G1 F960 X100.88 Y98.67 E1.96250
G0 F1620 X100.88 Y99.23
G1 F960 X99.12 Y100.99 E1.97228
G0 F1620 X99.12 Y101.55
G1 F960 X100.88 Y99.80 E1.98205
G0 F1620 X100.88 Y100.36
G1 F960 X99.29 Y101.95 E1.99088
G0 F1620 X99.58 Y102.23
G1 F960 X100.88 Y100.93 E1.99813
G0 F1620 X100.88 Y101.49
G1 F960 X99.87 Y102.50 E2.00373
G0 F1620 X99.90 Y102.30
;LAYER:6
G0 F1920 X99.77 Y102.62 Z0.66
;TYPE:WALL-OUTER
G1 F1140 X98.87 Y101.72 E2.00875
G1 X98.86 Y98.28 E2.02233
G1 X99.77 Y97.38 E2.02735
G1 X100.23 Y97.38 E2.02919
G1 X101.13 Y98.28 E2.03421
G1 X101.14 Y101.72 E2.04778
G1 X100.23 Y102.62 E2.05281
G1 X99.77 Y102.62 E2.05465
G0 F1920 X100.09 Y102.52
;TYPE:FILL
G1 F1140 X98.96 Y101.40 E2.06091
G0 F1920 X98.96 Y100.83
G1 F1140 X100.42 Y102.29 E2.06904
G0 F1920 X100.71 Y102.01
G1 F1140 X98.96 Y100.26 E2.07875
G0 F1920 X98.96 Y99.70
G1 F1140 X100.99 Y101.72 E2.09004
G0 F1920 X101.03 Y101.20
G1 F1140 X98.96 Y99.13 E2.10159
G0 F1920 X98.96 Y98.57
G1 F1140 X101.03 Y100.64 E2.11314
G0 F1920 X101.03 Y100.07
G1 F1140 X99.12 Y98.16 E2.12380
G0 F1920 X99.40 Y97.88
G1 F1140 X101.03 Y99.51 E2.13288
G0 F1920 X101.03 Y98.94
G1 F1140 X99.69 Y97.59 E2.14038
G0 F1920 X100.14 Y97.48
G1 F1140 X101.03 Y98.37 E2.14538
G0 F1920 X100.83 Y98.37
;LAYER:7
G0 F2100 X101.29 Y98.38 Z0.72
;TYPE:WALL-OUTER
G1 F1260 X101.29 Y101.62 E2.15819
G1 X100.27 Y102.64 E2.16388
G1 X99.73 Y102.64 E2.16601
G1 X98.71 Y101.62 E2.17170
G1 X98.71 Y98.38 E2.18451
G1 X99.73 Y97.36 E2.19021
G1 X100.27 Y97.36 E2.19234
G1 X101.29 Y98.38 E2.19802
G0 F2100 X101.19 Y98.47
;TYPE:FILL
G1 F1260 X98.81 Y100.85 E2.21130
G0 F2100 X98.81 Y100.29
G1 F1260 X100.93 Y98.16 E2.22316
G0 F2100 X100.65 Y97.88
G1 F1260 X98.81 Y99.72 E2.23344
G0 F2100 X98.81 Y99.16
G1 F1260 X100.37 Y97.60 E2.24216
G0 F2100 X99.94 Y97.45
G1 F1260 X98.81 Y98.59 E2.24851
G0 F2100 X99.01 Y98.59
G0 X100.99 Y99.04
G0 X101.19 Y99.04
G1 F1260 X98.81 Y101.42 E2.26178
G0 F2100 X99.01 Y101.78
G1 F1260 X101.19 Y99.60 E2.27394
G0 F2100 X101.19 Y100.17
G1 F1260 X99.29 Y102.07 E2.28452
G0 F2100 X99.57 Y102.35
G1 F1260 X101.19 Y100.73 E2.29353
G0 F2100 X101.19 Y101.30
G1 F1260 X99.95 Y102.54 E2.30047
G0 F2100 X99.95 Y102.35
;LAYER:8
G0 F2220 X99.69 Y102.67 Z0.78
;TYPE:WALL-OUTER
G1 F1320 X98.55 Y101.53 E2.30683
G1 X98.55 Y98.47 E2.31887
G1 X99.69 Y97.33 E2.32524
G1 X100.31 Y97.33 E2.32766
G1 X101.45 Y98.47 E2.33402
G1 X101.45 Y101.53 E2.34606
G1 X100.31 Y102.67 E2.35242
G1 X99.69 Y102.67 E2.35484
G0 F2220 X100.01 Y102.57
;TYPE:FILL
G1 F1320 X98.65 Y101.20 E2.36245
G0 F2220 X98.65 Y100.64
G1 F1320 X100.42 Y102.41 E2.37233
G0 F2220 X100.71 Y102.13
G1 F1320 X98.65 Y100.07 E2.38379
G0 F2220 X98.65 Y99.50
G1 F1320 X100.99 Y101.84 E2.39683
G0 F2220 X101.27 Y101.56
G1 F1320 X98.65 Y98.94 E2.41145
G0 F2220 X98.72 Y98.44
G1 F1320 X101.35 Y101.07 E2.42611
G0 F2220 X101.35 Y100.51
G1 F1320 X99.00 Y98.16 E2.43919
G0 F2220 X99.29 Y97.88
G1 F1320 X101.35 Y99.94 E2.45069
G0 F2220 X101.35 Y99.37
G1 F1320 X99.57 Y97.60 E2.46061
G0 F2220 X99.97 Y97.43
G1 F1320 X101.35 Y98.81 E2.46828
G0 F2220 X101.15 Y98.81
;LAYER:9
G0 F2400 X101.61 Y98.57 Z0.84
;TYPE:WALL-OUTER
G1 F1440 X101.61 Y101.43 E2.47956
G1 X100.34 Y102.69 E2.48660
G1 X99.66 Y102.69 E2.48931
G1 X98.39 Y101.43 E2.49633
G1 X98.39 Y98.57 E2.50761
G1 X99.66 Y97.31 E2.51465
G1 X100.34 Y97.31 E2.51736
G1 X101.61 Y98.57 E2.52439
G0 F2400 X101.34 Y98.44
;TYPE:FILL
G1 F1440 X98.50 Y101.29 E2.54024
G0 F2400 X98.73 Y101.62
G1 F1440 X101.50 Y98.85 E2.55572
G0 F2400 X101.50 Y99.41
G1 F1440 X99.01 Y101.90 E2.56962
G0 F2400 X99.29 Y102.19
G1 F1440 X101.50 Y99.98 E2.58195
G0 F2400 X101.50 Y100.54
G1 F1440 X99.57 Y102.47 E2.59271
G0 F2400 X100.02 Y102.59
G1 F1440 X101.50 Y101.11 E2.60098
G0 F2400 X101.31 Y101.11
G0 X100.91 Y98.30
G0 X101.06 Y98.16
G1 F1440 X98.50 Y100.72 E2.61525
G0 F2400 X98.49 Y100.16
G1 F1440 X100.77 Y97.88 E2.62796
G0 F2400 X100.49 Y97.60
G1 F1440 X98.49 Y99.59 E2.63909
G0 F2400 X98.49 Y99.03
G1 F1440 X100.11 Y97.41 E2.64811
G0 F2400 X100.11 Y97.61
;LAYER:10
G0 F2520 X100.38 Y97.29 Z0.90
;TYPE:WALL-OUTER
G1 F1500 X101.76 Y98.67 E2.65581
G1 X101.76 Y101.33 E2.66632
G1 X100.38 Y102.71 E2.67402
G1 X99.62 Y102.71 E2.67703
G1 X98.24 Y101.33 E2.68472
G1 X98.24 Y98.67 E2.69524
G1 X99.62 Y97.29 E2.70294
G1 X100.38 Y97.29 E2.70594
G0 F2520 X99.80 Y97.39
;TYPE:FILL
G1 F1500 X101.66 Y99.24 E2.71629
G0 F2520 X101.66 Y99.81
G1 F1500 X100.09 Y98.24 E2.72505
G0 F2520 X99.91 Y98.05
G1 F1500 X99.45 Y97.60 E2.72761
G0 F2520 X99.17 Y97.88
G1 F1500 X99.91 Y98.62 E2.73174
G0 F2520 X100.09 Y98.80
G1 F1500 X101.66 Y100.37 E2.74050
G0 F2520 X101.66 Y100.94
G1 F1500 X100.09 Y99.37 E2.74925
G0 F2520 X99.91 Y99.18
G1 F1500 X98.88 Y98.16 E2.75497
G0 F2520 X98.60 Y98.44
G1 F1500 X99.91 Y99.75 E2.76226
G0 F2520 X100.09 Y99.94
G1 F1500 X101.55 Y101.40 E2.77042
G0 F2520 X101.27 Y101.68
G1 F1500 X100.09 Y100.50 E2.77699
G0 F2520 X99.91 Y100.32
G1 F1500 X98.33 Y98.75 E2.78576
G0 F2520 X98.33 Y99.31
G1 F1500 X99.91 Y100.88 E2.79453
G0 F2520 X100.09 Y101.07
G1 F1500 X100.99 Y101.96 E2.79952
G0 F2520 X100.71 Y102.25
G1 F1500 X100.09 Y101.63 E2.80294
G0 F2520 X99.91 Y101.45
G1 F1500 X98.34 Y99.88 E2.81171
G0 F2520 X98.34 Y100.44
G1 F1500 X99.91 Y102.01 E2.82047
G0 F2520 X100.09 Y102.20
G1 F1500 X100.42 Y102.53 E2.82231
G0 F2520 X99.94 Y102.61
G1 F1500 X98.34 Y101.01 E2.83125
G0 F2520 X98.54 Y101.01
;LAYER:11
G0 F2820 X98.08 Y101.24 Z0.96
;TYPE:WALL-OUTER
G1 F1680 X98.08 Y98.76 E2.84100
G1 X99.58 Y97.26 E2.84937
G1 X100.42 Y97.26 E2.85267
G1 X101.92 Y98.76 E2.86103
G1 X101.92 Y101.24 E2.87078
G1 X100.42 Y102.74 E2.87915
G1 X99.58 Y102.74 E2.88245
G1 X98.08 Y101.24 E2.89081
G0 F2820 X98.18 Y101.16
;TYPE:FILL
G1 F1680 X99.75 Y99.59 E2.89956
G0 F2820 X99.55 Y99.42
G1 F1680 X100.45 Y100.32 E2.90457
G0 F2820 X100.25 Y100.22
G1 F1680 X101.74 Y98.73 E2.91289
G0 F2820 X101.46 Y98.44
G1 F1680 X100.25 Y99.65 E2.91963
G0 F2820 X100.45 Y99.42
G1 F1680 X99.55 Y100.32 E2.92464
G0 F2820 X99.75 Y100.15
G1 F1680 X98.44 Y101.46 E2.93192
G0 F2820 X98.73 Y101.74
G1 F1680 X99.75 Y100.72 E2.93763
G0 F2820 X100.25 Y100.78
G1 F1680 X101.82 Y99.22 E2.94637
G0 F2820 X101.82 Y99.78
G1 F1680 X100.25 Y101.35 E2.95511
G0 F2820 X99.75 Y101.28
G1 F1680 X99.01 Y102.02 E2.95924
G0 F2820 X99.29 Y102.31
G1 F1680 X99.81 Y102.07 E2.96179
G1 X99.57 Y102.59 E2.96405
G0 F2820 X100.10 Y102.64
G1 F1680 X101.82 Y100.91 E2.97365
G0 F2820 X101.82 Y100.35
G1 F1680 X100.25 Y101.92 E2.98240
G0 F2820 X98.38 Y100.59
G0 X98.18 Y100.59
G1 F1680 X99.75 Y99.02 E2.99114
G0 F2820 X100.25 Y99.09
G1 F1680 X101.18 Y98.16 E2.99631
G0 F2820 X100.89 Y97.88
G1 F1680 X100.25 Y98.52 E2.99990
G0 F2820 X99.75 Y98.46
G1 F1680 X98.18 Y100.03 E3.00864
G0 F2820 X98.18 Y99.46
G1 F1680 X99.75 Y97.89 E3.01739
G0 F2820 X100.03 Y97.61
G1 F1680 X100.44 Y97.48 E3.01880
G1 X100.25 Y97.96 E3.02083
G0 F2820 X99.71 Y97.36
G1 F1680 X98.18 Y98.89 E3.02938
G0 F2820 X98.38 Y98.89
;LAYER:12
G0 X97.92 Y98.86 Z1.02
;TYPE:WALL-OUTER
G1 F1680 X99.54 Y97.24 E3.03842
G1 X100.46 Y97.24 E3.04200
G1 X102.08 Y98.86 E3.05104
G1 X102.08 Y101.14 E3.06002
G1 X100.46 Y102.76 E3.06906
G1 X99.54 Y102.76 E3.07265
G1 X97.92 Y101.14 E3.08169
G1 X97.92 Y98.86 E3.09067
G0 F2820 X98.02 Y99.12
;TYPE:FILL
G1 F1680 X99.59 Y100.69 E3.09943
G0 F2820 X99.39 Y100.53
G1 F1680 X100.61 Y99.32 E3.10619
G0 F2820 X100.40 Y99.24
G1 F1680 X101.98 Y100.81 E3.11496
G0 F2820 X101.84 Y101.24
G1 F1680 X100.40 Y99.80 E3.12294
G0 F2820 X100.40 Y100.37
G1 F1680 X101.55 Y101.52 E3.12935
G0 F2820 X101.27 Y101.80
G1 F1680 X100.41 Y100.94 E3.13417
G0 F2820 X100.61 Y100.53
G1 F1680 X99.39 Y99.32 E3.14094
G0 F2820 X99.59 Y99.56
G1 F1680 X98.48 Y98.44 E3.14715
G0 F2820 X98.20 Y98.73
G1 F1680 X99.59 Y100.12 E3.15494
G0 F2820 X99.59 Y101.25
G1 F1680 X98.02 Y99.68 E3.16370
G0 F2820 X98.02 Y100.25
G1 F1680 X99.59 Y101.82 E3.17246
G0 F2820 X100.12 Y102.35
G1 F1680 X100.56 Y102.51 E3.17411
G1 X100.40 Y102.07 E3.17596
G0 F2820 X100.41 Y101.50
G1 F1680 X100.99 Y102.08 E3.17920
G0 F2820 X99.87 Y102.66
G1 F1680 X98.02 Y100.82 E3.18948
G0 F2820 X98.22 Y100.82
G0 X99.59 Y98.99
G1 F1680 X98.76 Y98.16 E3.19411
G0 F2820 X99.04 Y97.88
G1 F1680 X99.61 Y98.16 E3.19716
G1 X99.48 Y97.47 E3.19884
G1 X99.91 Y97.61 E3.20063
G0 F2820 X100.20 Y97.34
G1 F1680 X101.97 Y99.11 E3.21050
G0 F2820 X101.97 Y99.68
G1 F1680 X100.40 Y98.11 E3.21926
G0 F2820 X100.40 Y98.67
G1 F1680 X101.98 Y100.24 E3.22802
G0 F2820 X101.78 Y100.24
;LAYER:13
G0 X102.24 Y101.04 Z1.08
;TYPE:WALL-OUTER
G1 F1680 X100.49 Y102.78 E3.23774
G1 X99.51 Y102.78 E3.24162
G1 X97.77 Y101.04 E3.25133
G1 X97.76 Y98.96 E3.25954
G1 X99.51 Y97.22 E3.26925
G1 X100.49 Y97.22 E3.27313
G1 X102.23 Y98.96 E3.28284
G1 X102.24 Y101.04 E3.29105
G0 F2820 X102.13 Y100.72
;TYPE:FILL
G1 F1680 X100.17 Y102.68 E3.30200
G0 F2820 X99.88 Y102.41
G1 F1680 X99.45 Y102.55 E3.30352
G1 X99.51 Y101.92 E3.30520
G1 X99.01 Y102.14 E3.30738
G0 F2820 X98.73 Y101.86
G1 F1680 X99.44 Y101.15 E3.31134
G0 F2820 X99.24 Y100.75
G1 F1680 X100.76 Y99.22 E3.31984
G0 F2820 X100.56 Y99.46
G1 F1680 X101.58 Y98.44 E3.32551
G0 F2820 X101.86 Y98.73
G1 F1680 X100.56 Y100.03 E3.33275
G0 F2820 X100.56 Y100.59
G1 F1680 X102.13 Y99.02 E3.34149
G0 F2820 X102.13 Y99.59
G1 F1680 X100.56 Y101.16 E3.35023
G0 F2820 X100.76 Y100.75
G1 F1680 X99.23 Y99.22 E3.35876
G0 F2820 X99.43 Y99.46
G1 F1680 X97.88 Y101.01 E3.36743
G0 F2820 X98.16 Y101.30
G1 F1680 X99.44 Y100.02 E3.37454
G0 F2820 X99.44 Y100.59
G1 F1680 X98.44 Y101.58 E3.38007
G0 F2820 X97.86 Y100.46
G1 F1680 X99.43 Y98.89 E3.38882
G0 F2820 X99.43 Y98.32
G1 F1680 X97.86 Y99.89 E3.39758
G0 F2820 X97.86 Y99.33
G1 F1680 X99.88 Y97.32 E3.40881
G0 F2820 X100.15 Y97.61
G1 F1680 X100.58 Y97.46 E3.41044
G1 X100.50 Y98.11 E3.41212
G1 X101.01 Y97.88 E3.41436
G0 F2820 X101.30 Y98.16
G1 F1680 X100.56 Y98.89 E3.41845
G0 F2820 X101.93 Y100.15
G0 X102.13 Y100.15
G1 F1680 X100.56 Y101.72 E3.42719
;LAYER:14
G0 F3000 X100.53 Y102.81 Z1.14
;TYPE:WALL-OUTER
G1 F1800 X99.47 Y102.81 E3.43136
G1 X97.61 Y100.94 E3.44174
G1 X97.61 Y99.06 E3.44919
G1 X99.47 Y97.19 E3.45957
G1 X100.53 Y97.19 E3.46374
G1 X102.39 Y99.06 E3.47412
G1 X102.39 Y100.94 E3.48157
G1 X100.53 Y102.81 E3.49195
G0 F3000 X100.36 Y102.71
;TYPE:FILL
